X: 011
T: Miss Ridley of Blagnon's
C: Abraham Mackintosh
R: strathspey
M: C|
L: 1/8
Z: 2010 John Chambers <jc:trillian.mit.edu>
B: Abraham Mackintosh "A Collection of Strathspeys, Reels, Jigs &c.", Newcastle, after 1797, p.1
F: http://imslp.info/files/imglnks/usimg/a/a8/IMSLP80796-PMLP164326-Abraham_Mackintosh_coll.pdf
K: F
%
V: 1
{cce}f>cA>B c>dcA | f>c {d}cB/A/ G<gg>a | f>cA>B c>dcA | {d}cB/A/ GA F<ff>a :|
c<ff>a c<ff>a | g>ba>f e<gg>a | c>ff>c d>^fg>a | b>aga ff {g}fe/d/ |
c<ff>a c<ff>a | b>g {b}ag/f/ eg {a}gf/e/ | f<aA>f d<bB>d | c>B A>G AFFc |]
%
V: 2 clef=bass middle=d
f2f2 f2f2 | a2f2 c'2c2 | A2f2 f2f2 | c'2c2 f2F2 :|
f2f2 a2f2 | e2f2 c2c2 | A2a2 b3a | g2c'2 f2F2 |
A2f2 a2f2 | e2f2 c'2c2 | f2a2 b2g2 | c'2c2 f2F2 |]

%%sep 2 1 500

